Newaita/actions/32/mail-tagged.svg

<svg height="32" viewBox="0 0 32 32" width="32" xmlns="http://www.w3.org/2000/svg"><g fill="#424242"><path d="m20.019531 17.632812c-1.035156 1.035157-1.035156 2.703126 0 3.742188l5.144531 5.144531c.261719.257813.675782.257813.9375 0l2.804688-2.808593c.261719-.257813.261719-.675782 0-.933594l-5.144531-5.144532c-1.035157-1.039062-2.707031-1.039062-3.742188 0zm.9375.933594c.515625-.519531 1.351563-.519531 1.871094 0 .515625.519532.515625 1.351563 0 1.871094-.519531.519531-1.355469.519531-1.871094 0-.519531-.519531-.519531-1.351562 0-1.871094zm0 0"/><path d="m26.460938 5.542969h-21.167969c-1.464844 0-2.648438 1.179687-2.648438 2.644531v15.878906c0 1.464844 1.183594 2.644532 2.648438 2.644532h11.246093v-2.644532h-9.925781c-.730469 0-1.320312-.589844-1.320312-1.324218v-12.9375l9.707031 8.628906c.5.445312 1.253906.445312 1.75 0l9.710938-8.628906v4.335937h2.644531v-5.953125c0-1.464844-1.179688-2.644531-2.644531-2.644531zm-19.019532 2.644531h16.871094l-8.4375 7.5zm0 0"/></g></svg>

<?xml version="1.0" encoding="UTF-8"?>
<svg xmlns="http://www.w3.org/2000/svg" xmlns:xlink="http://www.w3.org/1999/xlink" width="32px" height="32px" viewBox="0 0 32 32" version="1.1">
<g id="surface1">
<path style=" stroke:none;fill-rule:nonzero;fill:rgb(25.882354%,25.882354%,25.882354%);fill-opacity:1;" d="M 20.019531 17.632812 C 18.984375 18.667969 18.984375 20.335938 20.019531 21.375 L 25.164062 26.519531 C 25.425781 26.777344 25.839844 26.777344 26.101562 26.519531 L 28.90625 23.710938 C 29.167969 23.453125 29.167969 23.035156 28.90625 22.777344 L 23.761719 17.632812 C 22.726562 16.59375 21.054688 16.59375 20.019531 17.632812 Z M 20.957031 18.566406 C 21.472656 18.046875 22.308594 18.046875 22.828125 18.566406 C 23.34375 19.085938 23.34375 19.917969 22.828125 20.4375 C 22.308594 20.957031 21.472656 20.957031 20.957031 20.4375 C 20.4375 19.917969 20.4375 19.085938 20.957031 18.566406 Z M 20.957031 18.566406 "/>
<path style=" stroke:none;fill-rule:nonzero;fill:rgb(25.882354%,25.882354%,25.882354%);fill-opacity:1;" d="M 26.460938 5.542969 L 5.292969 5.542969 C 3.828125 5.542969 2.644531 6.722656 2.644531 8.1875 L 2.644531 24.066406 C 2.644531 25.53125 3.828125 26.710938 5.292969 26.710938 L 16.539062 26.710938 L 16.539062 24.066406 L 6.613281 24.066406 C 5.882812 24.066406 5.292969 23.476562 5.292969 22.742188 L 5.292969 9.804688 L 15 18.433594 C 15.5 18.878906 16.253906 18.878906 16.75 18.433594 L 26.460938 9.804688 L 26.460938 14.140625 L 29.105469 14.140625 L 29.105469 8.1875 C 29.105469 6.722656 27.925781 5.542969 26.460938 5.542969 Z M 7.441406 8.1875 L 24.3125 8.1875 L 15.875 15.6875 Z M 7.441406 8.1875 "/>
</g>
</svg>
